elementary-xfce/apps/symbolic/preferences-color-symbolic.svg

<?xml version="1.0" encoding="UTF-8" standalone="no"?>
<svg
   height="16"
   width="16"
   version="1.1"
   id="svg2"
   xmlns="http://www.w3.org/2000/svg"
   xmlns:svg="http://www.w3.org/2000/svg">
  <defs
     id="defs2" />
  <g
     transform="translate(-932,-460)"
     id="g2"
     style="fill:#666666;fill-opacity:1">
    <circle
       color="#000000"
       cx="-943"
       cy="471"
       fill="#666"
       opacity="0.6"
       overflow="visible"
       r="4.5"
       style="fill:#666666;marker:none;fill-opacity:1"
       transform="scale(-1,1)"
       id="circle1" />
    <circle
       color="#000000"
       cx="-937"
       cy="471"
       fill="#666"
       opacity="0.4"
       overflow="visible"
       r="4.5"
       style="fill:#666666;marker:none;fill-opacity:1"
       transform="scale(-1,1)"
       id="circle2" />
    <path
       id="path7651"
       style="color:#000000;fill:#666666;fill-rule:evenodd;stroke-linecap:round;stroke-linejoin:round;-inkscape-stroke:none;paint-order:markers fill stroke;fill-opacity:1"
       d="M 940 460 C 937.2445 460 935 462.2445 935 465 C 935 465.46546 935.06581 465.91581 935.18555 466.34375 C 933.32398 467.07237 932 468.88443 932 471 C 932 473.7555 934.2445 476 937 476 C 938.12485 476 939.16339 475.62623 940 474.99609 C 940.83661 475.62623 941.87515 476 943 476 C 945.7555 476 948 473.7555 948 471 C 948 468.88443 946.67602 467.07237 944.81445 466.34375 C 944.93419 465.91581 945 465.46546 945 465 C 945 462.2445 942.7555 460 940 460 z M 940 461 C 942.21506 461 944 462.78494 944 465 C 944 465.37257 943.94806 465.73243 943.85352 466.07422 C 943.57588 466.02617 943.29109 466 943 466 C 941.87515 466 940.83661 466.37377 940 467.00391 C 939.16339 466.37377 938.12485 466 937 466 C 936.70891 466 936.42412 466.02617 936.14648 466.07422 C 936.05194 465.73243 936 465.37257 936 465 C 936 462.78494 937.78494 461 940 461 z M 937 467 C 937.8382 467 938.61425 467.25558 939.25586 467.69336 C 938.97899 468.00644 938.74113 468.35335 938.54883 468.72852 C 937.70538 468.40133 937.00128 467.79808 936.54883 467.02734 C 936.69689 467.01085 936.84742 467 937 467 z M 943 467 C 943.15258 467 943.30311 467.01085 943.45117 467.02734 C 942.99872 467.79808 942.29462 468.40133 941.45117 468.72852 C 941.25887 468.35335 941.02101 468.00644 940.74414 467.69336 C 941.38575 467.25558 942.1618 467 943 467 z M 935.54883 467.27148 C 936.1043 468.35513 937.04312 469.2091 938.18555 469.65625 C 938.06581 470.08419 938 470.53454 938 471 C 938 472.26674 938.47558 473.4243 939.25586 474.30664 C 938.61425 474.74442 937.8382 475 937 475 C 934.78494 475 933 473.21506 933 471 C 933 469.29774 934.05541 467.8508 935.54883 467.27148 z M 944.45117 467.27148 C 945.94459 467.8508 947 469.29774 947 471 C 947 473.21506 945.21506 475 943 475 C 942.1618 475 941.38575 474.74442 940.74414 474.30664 C 941.52442 473.4243 942 472.26674 942 471 C 942 470.53454 941.93419 470.08419 941.81445 469.65625 C 942.95688 469.2091 943.8957 468.35513 944.45117 467.27148 z M 940 468.35156 C 940.16928 468.54329 940.32087 468.75068 940.45117 468.97266 C 940.30311 468.98915 940.15258 469 940 469 C 939.84742 469 939.69689 468.98915 939.54883 468.97266 C 939.67913 468.75068 939.83072 468.54329 940 468.35156 z M 939.14648 469.92578 C 939.42412 469.97383 939.70891 470 940 470 C 940.29109 470 940.57588 469.97383 940.85352 469.92578 C 940.94806 470.26757 941 470.62743 941 471 C 941 472.01774 940.62222 472.94371 940 473.64844 C 939.37778 472.94371 939 472.01774 939 471 C 939 470.62743 939.05194 470.26757 939.14648 469.92578 z " />
  </g>
</svg>

<?xml version="1.0" encoding="UTF-8" standalone="no"?>
<svg
   xmlns:dc="http://purl.org/dc/elements/1.1/"
   xmlns:cc="http://creativecommons.org/ns#"
   xmlns:rdf="http://www.w3.org/1999/02/22-rdf-syntax-ns#"
   xmlns:svg="http://www.w3.org/2000/svg"
   xmlns="http://www.w3.org/2000/svg"
   height="16"
   width="16.034"
   id="svg2"
   version="1.1">
  <metadata
     id="metadata16">
    <rdf:RDF>
      <cc:Work
         rdf:about="">
        <dc:format>image/svg+xml</dc:format>
        <dc:type
           rdf:resource="http://purl.org/dc/dcmitype/StillImage" />
      </cc:Work>
    </rdf:RDF>
  </metadata>
  <defs
     id="defs14" />
  <g
     transform="translate(-932 -460)"
     id="g4">
    <path
       color="#000"
       d="M940 460c-2.756 0-5 2.244-5 5 0 .459.083.894.2 1.316-1.867.727-3.2 2.532-3.2 4.65 0 2.756 2.244 5 5 5a4.95 4.95 0 0 0 3-1.027 4.95 4.95 0 0 0 3 1.028c2.756 0 5-2.245 5-5 0-2.119-1.332-3.924-3.197-4.65.116-.423.197-.859.197-1.317 0-2.756-2.244-5-5-5zm0 1c2.215 0 4 1.785 4 4 0 .364-.062.71-.152 1.045a4.977 4.977 0 0 0-.848-.078 4.95 4.95 0 0 0-3 1.027 4.95 4.95 0 0 0-3-1.027c-.289 0-.57.029-.846.076A3.986 3.986 0 0 1 936 465c0-2.215 1.785-4 4-4zm-3 5.967c.844 0 1.625.261 2.27.705-.281.317-.518.67-.711 1.05a3.977 3.977 0 0 1-2-1.712c.147-.017.29-.043.441-.043zm6 0c.151 0 .295.027.441.043a3.974 3.974 0 0 1-1.998 1.713 5 5 0 0 0-.713-1.05 3.981 3.981 0 0 1 2.27-.706zm-7.441.277a5.006 5.006 0 0 0 2.64 2.406c-.116.423-.199.858-.199 1.317 0 1.267.49 2.412 1.27 3.295a3.988 3.988 0 0 1-2.27.705c-2.215 0-4-1.785-4-4a3.985 3.985 0 0 1 2.559-3.723zm8.884 0a3.983 3.983 0 0 1 2.557 3.723c0 2.215-1.785 4-4 4a3.981 3.981 0 0 1-2.27-.707c.78-.882 1.27-2.027 1.27-3.293a4.93 4.93 0 0 0-.197-1.317 5.01 5.01 0 0 0 2.64-2.406zm-3.595 2.678c.09.335.152.68.152 1.045a3.968 3.968 0 0 1-1 2.625 3.968 3.968 0 0 1-1-2.625c0-.364.064-.709.154-1.043.276.047.557.076.846.076.29 0 .571-.03.848-.078z"
       fill="#666"
       font-family="sans-serif"
       font-weight="400"
       overflow="visible"
       style="line-height:normal;font-variant-ligatures:normal;font-variant-position:normal;font-variant-caps:normal;font-variant-numeric:normal;font-variant-alternates:normal;font-feature-settings:normal;text-indent:0;text-align:start;text-decoration-line:none;text-decoration-style:solid;text-decoration-color:#000;text-transform:none;text-orientation:mixed;shape-padding:0;isolation:auto;mix-blend-mode:normal;marker:none"
       white-space="normal"
       id="path6" />
    <circle
       color="#000"
       cx="-943"
       cy="470.967"
       fill="#666"
       opacity=".6"
       overflow="visible"
       r="4.5"
       style="marker:none"
       transform="scale(-1 1)"
       id="circle8" />
    <circle
       color="#000"
       cx="-937"
       cy="470.967"
       fill="#666"
       opacity=".4"
       overflow="visible"
       r="4.5"
       style="marker:none"
       transform="scale(-1 1)"
       id="circle10" />
  </g>
</svg>
